!!!OTL: Rinaldo-Rinaldini, (1-16), S. 43f
!!!id: K0092
**kern
*clefG2
*k[b-e-]
*B-:
{8f
8f
=1
4b-
4b-
4f
4f
=2
4d
8f
8d
4B-}
=3
{8b-
8b-
=4
4a
4b-
4cc
4dd
=5
8cc
8ff
8ee
8dd
4cc}
=6
{8b-
8b-
=7
4.a
8a
4cc
4cc
=8
2f}
4r
=9
{8f
8f
=10
4.ee-
8cc
4.dd
8b-
=11
8dd
8cc
4cc}
4r
=12
{8f
8f
=13
4.ee-
8ff
4.dd
8b-
=14
8dd
8cc
4cc}
4r
=15
{8f
8f
=16
4b-
4b-
4cc
4cc
=17
4.ff
8dd
4b-}
=18
{8b-
8a
=19
8g
8ee-
8dd
8cc
4dd
4cc
=20
2.b-}
==
*-
!!!minrhy: 8
!!!meters: 4/4 ]  ZZ[7
!!!cut: Rinaldo-Rinaldini, (1-16), S. 43f
!!!reg: Luxemburg
!!!trd: KINTZELE, Guillaume: An der Ucht, Bd. 1, Luxemburg 1926
!!!rhy1: XX  X_X_X_X_  X_XXX_
!!!rhy2: XX  X_X_X_X_  XXXXX_
!!!key: K0092  08 Bb 4/4 ]  ZZ[7
!!!mod: ACHTTONSKALA DUR ?]  AMBITUS[12
!!!kad: -12-52211
!!!akz: 1-5-3-1_-7222_-72-5_433_433_1251_-6311_
!!!fot: 'a__b__bw_c__cv_d__e__
!!!for: 'a__b__c__d__d__e__f__
!!!fok: '^d_^a_\__^a_^a_^a_S__
!! PHRAS[AUFTAKTIG]
!!!fkt: Liebe, Legende?
!!!bem: in der Quelle mit einer 2. Stimme versehen
!! KINTZELE
!! PR[17] 2K[12] 2G[18] 3K[4] 3G[1] 4A[1] 4Ü[0] 5A[0] 6K[5] 6G[1]
!! 7K[0] 7G[0] 8A[0] MEHR[0] SI[43] ABS[76] SR[30] SP[13]
!! ST[20] 2k[11] 2g[11] 3k[5] 3g[5] 4d[4] 4ü[0] 5d[0] 6k[4] 6g[0]
!! 7k[0] 7g[0] 8d[0] mehr[0] si[39] dm[+4] sr[21] sp[18]
!! 1F[5] 2F[59] 3F[24] 4F[0] LF[0] 2P[0] 3P[12] 4P[0] TRI[0] DF[4] AB[82]
!! TF[0] U3K[0] U3[0] U4[0] U4Ü[0] U5[8] U6K[0] U6[9] U7K[0] U7[13]
!! N1[14] N2K[0] N2[18] N3K[0] N3[18] N4[13] N4Ü[1] N5[4] N6K[0] N6[1]
!!!n7k: 0] N7[0] O1[0] O2K[0] O2[0] O3K[0] O3[0] HÖ[0
